X:1
T:Port Tom Mick [3]
M:12/8
L:1/8
R:Slike
K:D
B|A2F D2d c2B A2B|A2F D2F E3 E2B|
A2F D2d c2B A2B|A2F E2F D2D e:|
|:f2d e2c dcB A2e|f2d e2c d3 d2e|
f2d e2c dcB A2B|A2F E2F D3 D2:|

